X:1
T:Polka
C:traditionell
R:polka
A:Muehlen/Sand in Taufers, Suedtirol
%%textfont Helvetica-Narrow 10pt
%%begintext align
B:COMPA bd. 10, Volksmusik in suedtirol, taenze und spielstuecke aus der tonband-sammlung Dr Alfred Quellmalz (1940-42), Franz Kofler und Walter Deutsch, hrsg. Suedtiroler Kulturinstitut, Verlag Boehlau, Wien, Koeln, Weimar, 1999
N:tonart im buch: ganz in F,  erster ton c'
N:im buch s. 289, nr. 176
N:im buch dreistimmig (nachschlag und bass)
S:tonband-aufnahme Q-1476(55) 53/B06, vom 25.10.1941
S:ausfuehrende: Blaskapelle Muehlwald
S:besetzung: Es- u. B-klarinette, 2 Es-trompeten, 2 tenorhoerner, B-bass
%%endtext
Z:noten-transcription: Anja Bartlmae Rainer
Z:abc transcription: Simon Wascher
Q:1/4=114 %im buch
M:2/4
L:1/8
K:F
P:A
c |\
F>G AB | cf A2 | B/A/G c/B/E | F2 zc |\
F>G AB | cf A2 | B/A/G c/B/E | FF/F/ Fz ||
P:B
FC A/G/F | Ez B2 | EC B/A/G | FF A2 |\
FC A/G/F | Ez B2 | EC B/A/G | FF/F/ Fz :|
P:C
f>e f/e/d | d>c c/B/A | c>B B/A/B | d2 c2 |\
f>e f/e/d | d>c c/B/A | c>B G>E | FF/F/ Fz :|
%%wordsfont Times-Italic 11pt
W:aus Simon Waschers TradArchiv
